src/pos-icons/emoticon-dead.svg

<svg height="24" viewBox="0 0 24 24" width="24" xmlns="http://www.w3.org/2000/svg"><path d="m12 2c-5.53 0-10 4.47-10 10s4.47 10 10 10a10 10 0 0 0 10-10c0-5.53-4.5-10-10-10m-5.24 6.82 1.06-1.06 1.06 1.06 1.06-1.06 1.06 1.06-1.06 1.06 1.06 1.06-1.06 1.06-1.06-1.06-1.06 1.06-1.06-1.06 1.06-1.06zm.13 8.68c.8-2.04 2.78-3.5 5.11-3.5s4.31 1.46 5.11 3.5zm10.35-6.56-1.06 1.06-1.06-1.06-1.06 1.06-1.06-1.06 1.06-1.06-1.06-1.06 1.06-1.06 1.06 1.06 1.06-1.06 1.06 1.06-1.06 1.06z"/></svg>

<?xml version="1.0" encoding="UTF-8"?><!DOCTYPE svg PUBLIC "-//W3C//DTD SVG 1.1//EN" "http://www.w3.org/Graphics/SVG/1.1/DTD/svg11.dtd"><svg xmlns="http://www.w3.org/2000/svg" xmlns:xlink="http://www.w3.org/1999/xlink" version="1.1" id="mdi-emoticon-dead" width="24" height="24" viewBox="0 0 24 24"><path d="M12,2C6.47,2 2,6.47 2,12C2,17.53 6.47,22 12,22A10,10 0 0,0 22,12C22,6.47 17.5,2 12,2M6.76,8.82L7.82,7.76L8.88,8.82L9.94,7.76L11,8.82L9.94,9.88L11,10.94L9.94,12L8.88,10.94L7.82,12L6.76,10.94L7.82,9.88L6.76,8.82M6.89,17.5C7.69,15.46 9.67,14 12,14C14.33,14 16.31,15.46 17.11,17.5H6.89M17.24,10.94L16.18,12L15.12,10.94L14.06,12L13,10.94L14.06,9.88L13,8.82L14.06,7.76L15.12,8.82L16.18,7.76L17.24,8.82L16.18,9.88L17.24,10.94Z" /></svg>
